X: 1
T:The Blarney Pilgrim
M:6/8
L:1/8
C:Traditional
R:Jig
S:Step One: Play Pennywhistle, Peter Pickow
Z:Transcribed by Thornton Ros
K:G
DED DEG | A2 D ABc | BAG AGE | G2 G GED | DED DEG | A2 D ABc | BAG AGE |
 GED D3 :|
ded dBG | AGA BAG | ded dBG | ABA GBd | g2 e dBG | AGA BAG | B2 G AGE |
 [1 GED G3 :|  [2 GED DEG |]
A2 D B2 D | A2 D ABc | BAG AGE | GAG GED | A2 D B2 D | A2 D ABc | BAG AG
E | [1 GED DEG :| [2 GED D3 |]
% Output from ABC2Win  Version 2.1 i on 7/26/2001
